X:5
T:Top and Bottom
M:6/8
L:1/8
B:Thompson's Compleat Collection of 200 Favourite Country Dances, vol. 1 (London, 1757)
Z:Transcribed and edited by Fynnian Titford-Mock, 2007
Z:abc's:AK/Fiddler's Companion
K:G
g3 dBd|g3 dBd|gfe dcB|edc BAG|g3 dBd|g3 dBd|bag fed|Ad^c d3:|
|:dcB cea|cBA Bdg|edc BAG|FGE D2d|gaf gaf|gaf gaf|gdc BcA|G3 G,3:|

